X:3825
L:1/8
M:3/4
K:C
"C" .c'2 !>!c'3 a |"Dm/F" a>^g .a2 .d2 |"G7" f>e .f2 .B2 |"C" c>d e>d c2 | .c'2 !>!c'3 a | 
"Dm/F" a>^g .a2 .d2 |"G7" f>e f2 B2 |"C" .c2 !>!c2 z2 ::[K:G]"D7" d>e f>g a>b |"G" g>b g>e d2 | 
"D7" f>e d3 c |"G" e>d B4 |"D7" d>e f>g a>b |"G" g>b g>e d2 |"D7" (^cd ed) b>a |"G" .g2 !>!g2 z2 :: 
[K:C]"C" (eg) !>!d'3 c' |"Dm/F" (ba) a>^g a2 |"G7" Bd a3 g |"C" (fe) e>^d e2 | (eg) !>!d'3 c' | 
"^Dn/F" (df) !>!b3 a |"G7" (Bd) a3 g |"C" .c2 !>!c2 z2 ::[K:F]"F" f>e f2 a2 | c>=B c2 f2 | 
 A>B c>d e>f |"Gm/Bb" .e2 !>!d4 |"C7" g>^f g2 b2 | e>^d e2 g2 | c>d e>f g>a |"F" .f2 f2 z2 :|

